www/assets/icons/lunch_dining.svg

<svg width="24" height="24" viewBox="0 0 24 24" xmlns="http://www.w3.org/2000/svg" fill='currentColor'><path fill-rule="evenodd" clip-rule="evenodd" d="M21.9921 10C22.3121 6.72 17.7121 4 12.0021 4C6.29213 4 1.69213 6.72 2.01213 10H21.9921Z"/><path fill-rule="evenodd" clip-rule="evenodd" d="M5.34213 13.5C5.89213 13.5 6.12213 13.64 6.49213 13.86C6.94213 14.13 7.56213 14.5 8.67213 14.5C9.78213 14.5 10.4021 14.13 10.8521 13.86C11.2221 13.63 11.4421 13.5 12.0021 13.5C12.5521 13.5 12.7821 13.64 13.1521 13.86C13.6021 14.13 14.2221 14.5 15.3321 14.5C16.4421 14.5 17.0621 14.13 17.5121 13.86C17.8821 13.63 18.1021 13.5 18.6621 13.5C19.2121 13.5 19.4421 13.64 19.8121 13.86C20.2621 14.13 20.8821 14.49 21.9821 14.5V12.52C21.9821 12.52 21.1921 12.36 20.8221 12.14C20.3721 11.87 19.7521 11.5 18.6421 11.5C17.5321 11.5 16.9121 11.87 16.4621 12.14C16.0921 12.37 15.8621 12.5 15.3121 12.5C14.7621 12.5 14.5321 12.36 14.1621 12.14C13.7121 11.87 13.0921 11.5 11.9821 11.5C10.8721 11.5 10.2521 11.87 9.80213 12.14C9.43213 12.37 9.21213 12.5 8.65213 12.5C8.10213 12.5 7.87213 12.36 7.50213 12.14C7.05213 11.87 6.43213 11.5 5.32213 11.5C4.21213 11.5 3.59213 11.87 3.14213 12.14C2.77213 12.37 2.55213 12.5 1.99213 12.5V14.5C3.10213 14.5 3.72213 14.13 4.20213 13.86C4.57213 13.63 4.79213 13.5 5.34213 13.5Z"/><path fill-rule="evenodd" clip-rule="evenodd" d="M1.99213 16V18C1.99213 19.1 2.89213 20 3.99213 20H19.9921C21.0921 20 21.9921 19.1 21.9921 18V16H1.99213Z"/></svg>

<svg xmlns="http://www.w3.org/2000/svg" width="24" height="24" viewBox="0 0 24 24" fill='currentColor'><path fill-rule="evenodd" d="M21.992 10c.32-3.28-4.28-6-9.99-6s-10.31 2.72-9.99 6zm-16.65 3.5c.55 0 .78.14 1.15.36.45.27 1.07.64 2.18.64s1.73-.37 2.18-.64c.37-.23.59-.36 1.15-.36.55 0 .78.14 1.15.36.45.27 1.07.64 2.18.64s1.73-.37 2.18-.64c.37-.23.59-.36 1.15-.36.55 0 .78.14 1.15.36.45.27 1.07.63 2.17.64v-1.98s-.79-.16-1.16-.38c-.45-.27-1.07-.64-2.18-.64s-1.73.37-2.18.64c-.37.23-.6.36-1.15.36s-.78-.14-1.15-.36c-.45-.27-1.07-.64-2.18-.64s-1.73.37-2.18.64c-.37.23-.59.36-1.15.36-.55 0-.78-.14-1.15-.36-.45-.27-1.07-.64-2.18-.64s-1.73.37-2.18.64c-.37.23-.59.36-1.15.36v2c1.11 0 1.73-.37 2.21-.64.37-.23.59-.36 1.14-.36M1.992 16v2c0 1.1.9 2 2 2h16c1.1 0 2-.9 2-2v-2z" clip-rule="evenodd"/></svg>
